X: 7916
T: Concert, The
R: hornpipe
M: 4/4
K: Cdorian
|:F>E|D>Fd>F D>Fd>F|E>Fc>F D>F d2|e2 d>e c>dB>c|A>BG>A F2 F>E|
D>Fd>F D>Fd>F|E>Fc>F D>F d2|e2 d>e c>dB>c|A>G (3FGA B2:|
|:B>c|d>Dc>D B>DA>D|G>DG>B d>B G2|^F>DF>A d>A F2|G>DG>B d>B G2|
d>Dc>D B>DA>D|G>DG>B d>B G2|^F>DF>A d>AF>D|G2 B2 G2:|

